icon-themes/sifr_svg/cmd/lc_beziersymmetric.svg

<svg viewBox="0 0 24 24" xmlns="http://www.w3.org/2000/svg"><g fill="#555753"><path d="m3 6a9 11 0 0 0 8 10.917969v-1.917969h1a7 9 0 0 1 -7-9zm9 9h1v1.925781a9 11 0 0 0 8-10.925781h-2a7 9 0 0 1 -7 9z" opacity=".35"/><path d="m3 13a3 3 0 0 0 -3 3 3 3 0 0 0 3 3 3 3 0 0 0 2.8261719-2h3.1738281v2h6v-2h3.175781a3 3 0 0 0 2.824219 2 3 3 0 0 0 3-3 3 3 0 0 0 -3-3 3 3 0 0 0 -2.826172 2h-3.173828v-2h-6v2h-3.1757812a3 3 0 0 0 -2.8242188-2zm0 2a1 1 0 0 1 1 1 1 1 0 0 1 -1 1 1 1 0 0 1 -1-1 1 1 0 0 1 1-1zm8 0h2v2h-2zm10 0a1 1 0 0 1 1 1 1 1 0 0 1 -1 1 1 1 0 0 1 -1-1 1 1 0 0 1 1-1z"/></g></svg>

<svg xmlns="http://www.w3.org/2000/svg" viewBox="0 0 24 24">
  <path
     style="opacity:0.35;fill:#555753"
     d="M 3 6 A 9 11 0 0 0 11 16.917969 L 11 15 L 12 15 A 7 9 0 0 1 5 6 L 3 6 z M 12 15 L 13 15 L 13 16.925781 A 9 11 0 0 0 21 6 L 19 6 A 7 9 0 0 1 12 15 z "
     />
  <path
     style="fill:#555753"
     d="m 3,13 a 3,3 0 0 0 -3,3 3,3 0 0 0 3,3 3,3 0 0 0 2.8261719,-2 H 9 v 2 h 6 v -2 h 3.175781 A 3,3 0 0 0 21,19 3,3 0 0 0 24,16 3,3 0 0 0 21,13 3,3 0 0 0 18.173828,15 H 15 V 13 H 9 v 2 H 5.8242188 A 3,3 0 0 0 3,13 Z m 0,2 a 1,1 0 0 1 1,1 1,1 0 0 1 -1,1 1,1 0 0 1 -1,-1 1,1 0 0 1 1,-1 z m 8,0 h 2 v 2 h -2 z m 10,0 a 1,1 0 0 1 1,1 1,1 0 0 1 -1,1 1,1 0 0 1 -1,-1 1,1 0 0 1 1,-1 z"
     />
</svg>
